X: 06024
T: FRENCH CLUB REEL
C: Bob McQuillen May'82
B: Bob's Note Book 6 #24
%R: reel
Z: 2021 John Chambers <jc:trillian.mit.edu>
M: C
L: 1/8
K: D
A,B, \
| D2DF EDB,D | FEDF A2fe | d2B2 Bdfe | d2dA BAAB |\
| d2df edBA | FEDF | ABdf | edBd BAFD | E2D2 D2 :|
|: FE \
| DFAd fafd | efed B2dB | A2d2 dBAF | ABAF E2FE |\
| DFAd fafd | efed B2AB | dfed BAFE | F2D2 D2 :|
%%begintext align
%% What a great place it is -
%% The French-American Victory Club in Waltham,
%% Mass. They hae a yearly fiddle contest which
%% sort of specializes in Cape Breton Style music, and also
%% a French-Canadian dance contest to go with it. It
%% sure makes for a great day in May!
%%endtext

%%sep 1 1 500

%%sep 1 1 500

